X: 41551
T: Unha Noite No Santo Cristo
R: polka
M: 2/4
K: Dmajor
FA|:d2 d/e/d/c/|dA FA|d2 d/e/d/c/|dA FA|
G>A G/F/E/G/|F>B A>d|c>B A/G/F/E/|1 D2 FA:|2 D2 D2||
|:AA/F/ D/E/F/G/|E>F G2|G/A/G/F/ E/F/G/E/|F>A DF|
AA/F/ D/E/F/G/|E>F G2|G/A/G/F/ E/D/E/F/|D2 D2:|
|:F2 FG|A2 Ad|ce dB|A2 A2|
F2 FG|A2 Ad|ce dB|A2 A2|
d2 dB|G>A Bd|c2 cA|F>G Ac|
B2 BG|E>F GE|F2 F z|F2 F>G||
|:A2 Ad|ce dB|A2 A2|F2 FG|
A2 Ad|ce dB|A2 A2|d2 dB|
G>A Bd|c2 cA|F>G Ac|B2 BG|
E>F GE|F2 A/B/A/B/|AG F/A/F/A/|d2 A/B/A/B/|
A>G FA|d2 d/c/B/c/|d/c/B/c/ d/c/B/c/|d/e/d/c/ B/c/d/B/|
c/d/c/B/ A/B/c/A/|B/c/B/A/ G/A/B/G/|A/B/A/G/ F/G/A/F/|
G/A/G/F/ E/F/G/E/|F/G/F/E/ D/E/F/D/|E/F/E/D/ E/F/G/E/|D2 D2||

